X:2876
T:Heili Karjalasta Humppa
S:Efter Anders Hällström
Z:[[http://www.bluerose.karenlmyers.org/IncipitsHumppa1.html|Karen Myers (#2876)]]
Z:Upptecknad 6/2007
M:4/4
L:1/8
R:Humppa
O:Finland
K:Gm
dded B3 B | ccdc A3 A | BBcd cBAG | A3 ^F D3 D |
dded B3 B | ccdc A3 A | BA2 G ^cB2 A | d4 d3 (d ||
g>)d ^cd fed=c | B2 G3 (DG)A | B(c/B/ A)B c>B AG | A3 ^F D3 (d |
g>)d ^cd fed=c | B2 G3 (DG)A | BAz G AGz ^F | G4 z G^FG ||
A>A Bc d>d =e^f | g>a gf ed c2 | (f>g) fe dcBc | d4 d3 (d |
g>)d ^cd fed=c | B2 G3 (DG)A | B(c/B/ A)G A(B/A/ G)^F | G4 [G,4G4]  |]
